X:1
T:O Father, Forgive!
T:O Father, Forgive!
T:Minnis Randolph Hayes
T:Stella May Thompson, 1913
T:Public Domain Courtesy of the Cyber Hymnal™
T:Public Domain Courtesy of the Cyber Hymnal™
C:Minnis Randolph Hayes
Z:Public Domain
Z:Courtesy of the Cyber Hymnal™
%%score 1 ( 2 3 )
L:1/8
Q:1/4=93
M:4/4
K:D
V:1 treble 
V:2 bass 
V:3 bass 
V:1
 [DA]>[DA] | [Fd]2 [DF]>[DF] [DB]2 [DA]>[DA] | [Ec]2 [Ge]>[Ge] [Fd]2 [FB]>[FB] | %3
w: 1.~If I’ve|wound- ed the heart of an-|o- ther to- day, Or have|
w: 2.~My trans-|gress- ions are ma- ny, I|hum- bly con- fess, But I|
w: 3.~If, when|mer- ci- less sor- row o’er-|sha- dows my soul, I have|
w: 4.~Tho’ I|oft have ne- glect- ed my|du- ty to do, Dis- o-|
 [EA]2 [Ec]>[Ec] [Ae]2 [Ed]>[DB] | [CA]6 [DA]>[DA] | [Fd]2 [DF]>[DF] [DB]2 [DA]>[DA] | %6
w: caused a lone tear- drop to|fall; If I’ve|turned in dis- dain from the|
w: long in Thy pre- cepts to|live; With the|boon of sal- va- tion Thou|
w: sought not Thy guid- ance each|day, But in|fol- ly have strayed where sin’s|
w: bey- ing Thy ho- ly com-|mand, And to|Thee and Thy cause I have|
 [Ec]2 [Ge]>[Ge] [Fd]2 [DB]>[EB] | [FA]2 [FA]>[FA] [Gc]2 [Ge]>[Ge] | [Fd]6 ||"^Refrain" [FA]>[FA] | %10
w: help- less a- way, Oh! for-|give, Thou blest Fa- ther of|all!||
w: on- ly can bless, O com-|pas- sion- ate Fa- ther, for-|give!|I am|
w: bil- lows oft roll, Oh! for-|give me, dear Fa- ther, I|pray!||
w: prov- en un- true, With the|saved I for- giv- en would|stand.||
 [Ec]2 [Ec]>[Ec] [Ec]2 [Ge]>[Ge] | [Fd]2 [Fd]>[Fd] [Fd]2 [FB]>[FB] | %12
w: ||
w: bow- ing be- fore Thee in|pen- i- tence now, O com-|
w: ||
w: ||
 [EA]2 [EA]>[Ec] [Ae]2 [Ed]>[DB] | [CA]6 [DA]>[DA] | [Fd]2 [DF]>[DF] [DB]2 [DA]>[DA] | %15
w: |||
w: pas- sion- ate Fa- ther, for-|give! Thou a-|lone with Thy peace can my|
w: |||
w: |||
 [Ec]2 [Ge]>[Ge] [Fd]2 [DB]>[EB] | [FA]2 [FA]>[FA] [Gc]2 [Ge]>[Ge] | [Fd]6 |] %18
w: |||
w: spir- it en- dow, O com-|pas- sion- ate Fa- ther, for-|give!|
w: |||
w: |||
V:2
 [D,F,]>[D,F,] | [D,A,]2 [D,A,]>[D,A,] G,2 [F,A,]>[F,A,] | %2
 [E,A,]2 [A,,A,]>[A,,A,] [D,A,]2 [D,D]>[D,D] | [E,C]2 [E,A,]>[E,B,] [E,C]2 [E,B,]>[E,^G,] | %4
 [A,,A,]6 [D,F,]>[D,F,] | [D,A,]2 [D,A,]>[D,A,] G,2 [F,A,]>[F,A,] | %6
 [E,A,]2 [A,,A,]>[A,,A,] [D,A,]2 [G,B,]>[G,B,] | [A,D]2 [A,D]>[A,D] [A,E]2 [A,,C]>[A,,C] | %8
 [D,A,]6 || [D,A,]>[D,A,] | [A,,A,]2 [A,,A,]>[A,,A,] [A,,A,]2 [A,,A,]>[A,,A,] | %11
 [D,A,]2 [D,A,]>[D,A,] [D,A,]2 [D,D]>[D,D] | [E,C]2 [E,C]>[E,B,] [E,C]2 [E,B,]>[E,^G,] | %13
 [A,,A,]6 [D,F,]>[D,F,] | [D,A,]2 [D,A,]>[D,A,] G,2 [F,A,]>[F,A,] | %15
 [E,A,]2 [A,,A,]>[A,,A,] [D,A,]2 [G,B,]>[G,B,] | [A,D]2 [A,D]>[A,D] [A,E]2 [A,,C]>[A,,C] | %17
 [D,A,]6 |] %18
V:3
 x2 | x4 G,2 x2 | x8 | x8 | x8 | x4 G,2 x2 | x8 | x8 | x6 || x2 | x8 | x8 | x8 | x8 | x4 G,2 x2 | %15
 x8 | x8 | x6 |] %18

